dist/img/svg/roulette.svg

<svg width="30" height="30" viewBox="0 0 30 30" fill="none" xmlns="http://www.w3.org/2000/svg">
<path d="M15 0C12.0333 0 9.13318 0.879735 6.66645 2.52796C4.19971 4.17618 2.27713 6.51886 1.14182 9.25975C0.00650346 12.0006 -0.290552 15.0166 0.288226 17.9264C0.867004 20.8361 2.29562 23.5088 4.3934 25.6066C6.49119 27.7044 9.16393 29.133 12.0736 29.7118C14.9834 30.2906 17.9994 29.9935 20.7403 28.8582C23.4811 27.7229 25.8238 25.8003 27.472 23.3336C29.1203 20.8668 30 17.9667 30 15C30 11.0218 28.4196 7.20644 25.6066 4.3934C22.7936 1.58035 18.9783 0 15 0ZM15 20C14.0111 20 13.0444 19.7068 12.2222 19.1573C11.3999 18.6079 10.759 17.827 10.3806 16.9134C10.0022 15.9998 9.90315 14.9945 10.0961 14.0245C10.289 13.0546 10.7652 12.1637 11.4645 11.4645C12.1637 10.7652 13.0546 10.289 14.0246 10.0961C14.9945 9.90315 15.9998 10.0022 16.9134 10.3806C17.8271 10.759 18.6079 11.3999 19.1574 12.2221C19.7068 13.0444 20 14.0111 20 15C20 16.3261 19.4732 17.5979 18.5355 18.5355C17.5979 19.4732 16.3261 20 15 20ZM20.41 8.33C19.1228 7.28224 17.56 6.62931 15.91 6.45V1.86C18.757 2.06592 21.4598 3.19264 23.61 5.07L20.41 8.33ZM14.09 6.45C12.44 6.62931 10.8772 7.28224 9.59 8.33L6.35001 5.09C8.51096 3.20464 11.229 2.07739 14.09 1.88V6.45ZM8.31 9.61C7.26224 10.8972 6.60933 12.46 6.43001 14.11H1.86C2.05739 11.249 3.18465 8.53095 5.07001 6.37L8.31 9.61ZM6.43001 15.93C6.60933 17.58 7.26224 19.1428 8.31 20.43L5.07001 23.67C3.18465 21.509 2.05739 18.791 1.86 15.93H6.43001ZM9.61 21.69C10.8972 22.7378 12.46 23.3907 14.11 23.57V28.14C11.249 27.9426 8.53095 26.8154 6.37 24.93L9.61 21.69ZM15.93 23.57C17.58 23.3907 19.1428 22.7378 20.43 21.69L23.61 24.93C21.449 26.8154 18.731 27.9426 15.87 28.14L15.93 23.57ZM21.71 20.41C22.7578 19.1228 23.4107 17.56 23.59 15.91H28.16C27.9626 18.771 26.8354 21.489 24.95 23.65L21.71 20.41ZM23.61 14.09C23.4307 12.44 22.7778 10.8772 21.73 9.59L24.97 6.35C26.8554 8.51095 27.9826 11.229 28.18 14.09H23.61Z" fill="#601DC0"/>
</svg>

<svg width="30" height="30" viewBox="0 0 30 30" fill="none" xmlns="http://www.w3.org/2000/svg"><path d="M15 0a15 15 0 100 30 15 15 0 000-30zm0 20a4.999 4.999 0 110-9.998A4.999 4.999 0 0115 20zm5.41-11.67a8.6 8.6 0 00-4.5-1.88V1.86a13.15 13.15 0 017.7 3.21l-3.2 3.26zm-6.32-1.88a8.6 8.6 0 00-4.5 1.88L6.35 5.09a13.15 13.15 0 017.74-3.21v4.57zM8.31 9.61a8.6 8.6 0 00-1.88 4.5H1.86a13.15 13.15 0 013.21-7.74l3.24 3.24zm-1.88 6.32a8.6 8.6 0 001.88 4.5l-3.24 3.24a13.15 13.15 0 01-3.21-7.74h4.57zm3.18 5.76a8.6 8.6 0 004.5 1.88v4.57a13.15 13.15 0 01-7.74-3.21l3.24-3.24zm6.32 1.88a8.6 8.6 0 004.5-1.88l3.18 3.24a13.15 13.15 0 01-7.74 3.21l.06-4.57zm5.78-3.16a8.6 8.6 0 001.88-4.5h4.57a13.15 13.15 0 01-3.21 7.74l-3.24-3.24zm1.9-6.32a8.6 8.6 0 00-1.88-4.5l3.24-3.24a13.15 13.15 0 013.21 7.74h-4.57z" fill="#601DC0"/></svg>
